; generated by Slic3r 1.3.0-dev on 2019-05-18 at 13:12:53

; external perimeters extrusion width = 0.40mm (2.28mm^3/s)
; perimeters extrusion width = 0.68mm (8.08mm^3/s)
; infill extrusion width = 0.74mm (12.57mm^3/s)
; solid infill extrusion width = 0.68mm (2.31mm^3/s)
; top infill extrusion width = 0.68mm (1.73mm^3/s)
; support material extrusion width = 0.40mm (3.90mm^3/s)

M107
M190 S60 ; set bed temperature and wait for it to be reached
M104 S205 ; set temperature
G28 ; home all axes
G1 Z5 F5000 ; lift nozzle

; Filament gcode

M109 S205 ; set temperature and wait for it to be reached
G21 ; set units to millimeters
G90 ; use absolute coordinates
M82 ; use absolute distances for extrusion
G92 E0
G1 Z0.300 F9600.000
G1 E-2.00000 F2400.00000
G92 E0
G1 X84.669 Y84.826 F9600.000
G1 E2.00000 F2400.00000
G1 F1800
G1 X85.315 Y84.200 E2.06004
G1 X86.165 Y83.450 E2.13579
G1 X86.867 Y82.888 E2.19587
G1 X87.967 Y82.097 E2.28639
G1 X88.924 Y81.490 E2.36211
G1 X89.705 Y81.045 E2.42216
G1 X90.715 Y80.530 E2.49790
G1 X91.534 Y80.160 E2.55792
G1 X92.589 Y79.742 E2.63371
G1 X93.875 Y79.317 E2.72417
G1 X94.744 Y79.080 E2.78437
G1 X95.849 Y78.833 E2.86000
G1 X96.735 Y78.678 E2.92012
G1 X97.861 Y78.536 E2.99592
G1 X98.757 Y78.465 E3.05600
G1 X99.888 Y78.430 E3.13160
G1 X100.788 Y78.444 E3.19168
G1 X101.920 Y78.515 E3.26750
G1 X102.814 Y78.614 E3.32756
G1 X103.933 Y78.791 E3.40322
G1 X104.813 Y78.973 E3.46331
G1 X105.911 Y79.255 E3.53904
G1 X107.202 Y79.667 E3.62952
G1 X108.045 Y79.986 E3.68976
G1 X109.083 Y80.435 E3.76532
G1 X109.892 Y80.831 E3.82552
G1 X111.076 Y81.490 E3.91600
G1 X112.033 Y82.097 E3.99171
G1 X112.769 Y82.615 E4.05181
G1 X113.664 Y83.309 E4.12749
G1 X114.348 Y83.894 E4.18763
G1 X115.174 Y84.669 E4.26334
G1 X115.800 Y85.315 E4.32338
G1 X116.550 Y86.165 E4.39912
G1 X117.112 Y86.867 E4.45920
G1 X117.903 Y87.967 E4.54972
G1 X118.510 Y88.924 E4.62544
G1 X118.955 Y89.705 E4.68549
G1 X119.470 Y90.715 E4.76123
G1 X119.840 Y91.534 E4.82125
G1 X120.258 Y92.589 E4.89705
G1 X120.683 Y93.875 E4.98750
G1 X120.920 Y94.744 E5.04771
G1 X121.167 Y95.849 E5.12333
G1 X121.322 Y96.735 E5.18345
G1 X121.464 Y97.861 E5.25925
G1 X121.535 Y98.757 E5.31933
G1 X121.570 Y99.888 E5.39493
G1 X121.535 Y101.243 E5.48543
G1 X121.464 Y102.139 E5.54551
G1 X121.322 Y103.265 E5.62131
G1 X121.167 Y104.151 E5.68143
G1 X120.920 Y105.256 E5.75706
G1 X120.683 Y106.125 E5.81726
G1 X120.333 Y107.202 E5.89285
G1 X120.014 Y108.045 E5.95309
G1 X119.565 Y109.083 E6.02865
G1 X119.169 Y109.892 E6.08885
G1 X118.510 Y111.076 E6.17933
G1 X117.903 Y112.033 E6.25504
G1 X117.385 Y112.769 E6.31514
G1 X116.691 Y113.664 E6.39082
G1 X116.106 Y114.348 E6.45096
G1 X115.331 Y115.174 E6.52667
G1 X114.685 Y115.800 E6.58671
G1 X113.835 Y116.550 E6.66245
G1 X113.133 Y117.112 E6.72253
G1 X112.033 Y117.903 E6.81305
G1 X111.076 Y118.510 E6.88877
G1 X110.295 Y118.955 E6.94882
G1 X109.285 Y119.470 E7.02456
G1 X108.466 Y119.840 E7.08459
G1 X107.411 Y120.258 E7.16038
G1 X106.125 Y120.683 E7.25083
G1 X105.256 Y120.920 E7.31104
G1 X104.151 Y121.167 E7.38666
G1 X103.265 Y121.322 E7.44678
G1 X102.139 Y121.464 E7.52258
G1 X101.243 Y121.535 E7.58266
G1 X100.112 Y121.570 E7.65825
G1 X99.212 Y121.556 E7.71834
G1 X98.080 Y121.485 E7.79416
G1 X97.186 Y121.386 E7.85423
G1 X96.067 Y121.209 E7.92988
G1 X95.187 Y121.027 E7.98997
G1 X94.089 Y120.745 E8.06570
G1 X92.798 Y120.333 E8.15618
G1 X91.955 Y120.014 E8.21642
G1 X90.917 Y119.565 E8.29198
G1 X90.108 Y119.169 E8.35219
G1 X88.924 Y118.510 E8.44266
G1 X87.967 Y117.903 E8.51837
G1 X87.231 Y117.385 E8.57847
G1 X86.336 Y116.691 E8.65415
G1 X85.652 Y116.106 E8.71430
G1 X84.826 Y115.331 E8.79000
G1 X84.200 Y114.685 E8.85004
G1 X83.450 Y113.835 E8.92578
G1 X82.888 Y113.133 E8.98586
G1 X82.097 Y112.033 E9.07639
G1 X81.490 Y111.076 E9.15210
G1 X81.045 Y110.295 E9.21215
G1 X80.530 Y109.285 E9.28789
G1 X80.160 Y108.466 E9.34792
G1 X79.742 Y107.411 E9.42371
G1 X79.317 Y106.125 E9.51417
G1 X79.080 Y105.256 E9.57436
G1 X78.833 Y104.151 E9.65000
G1 X78.678 Y103.265 E9.71012
G1 X78.536 Y102.139 E9.78592
G1 X78.465 Y101.243 E9.84599
G1 X78.430 Y100.112 E9.92158
G1 X78.444 Y99.212 E9.98168
G1 X78.515 Y98.080 E10.05750
G1 X78.614 Y97.186 E10.11756
G1 X78.791 Y96.067 E10.19322
G1 X78.973 Y95.187 E10.25330
G1 X79.255 Y94.089 E10.32903
G1 X79.667 Y92.798 E10.41952
G1 X79.986 Y91.955 E10.47975
G1 X80.435 Y90.917 E10.55531
G1 X80.831 Y90.108 E10.61552
G1 X81.376 Y89.116 E10.69109
G1 X81.847 Y88.348 E10.75128
G1 X82.485 Y87.410 E10.82703
G1 X83.024 Y86.692 E10.88707
G1 X83.746 Y85.819 E10.96275
G1 X84.628 Y84.869 E11.04932
G1 X85.054 Y85.198 F9600.000
G1 F1800
G1 X85.675 Y84.596 E11.10712
G1 X86.513 Y83.858 E11.18174
G1 X87.189 Y83.316 E11.23957
G1 X88.261 Y82.545 E11.32785
G1 X89.204 Y81.947 E11.40244
G1 X89.956 Y81.518 E11.46024
G1 X90.951 Y81.011 E11.53486
G1 X91.739 Y80.655 E11.59264
G1 X92.778 Y80.243 E11.66730
G1 X94.032 Y79.829 E11.75552
G1 X94.869 Y79.600 E11.81346
G1 X95.957 Y79.357 E11.88797
G1 X96.811 Y79.208 E11.94584
G1 X97.919 Y79.068 E12.02051
G1 X98.782 Y79.000 E12.07834
G1 X99.897 Y78.965 E12.15283
G1 X101.218 Y79.000 E12.24109
G1 X102.081 Y79.068 E12.29892
G1 X103.189 Y79.208 E12.37358
G1 X104.043 Y79.357 E12.43145
G1 X105.131 Y79.600 E12.50596
G1 X105.968 Y79.829 E12.56391
G1 X107.028 Y80.174 E12.63839
G1 X107.840 Y80.481 E12.69636
G1 X108.863 Y80.923 E12.77081
G1 X109.642 Y81.305 E12.82876
G1 X110.796 Y81.947 E12.91699
G1 X111.739 Y82.545 E12.99158
G1 X112.447 Y83.043 E13.04943
G1 X113.329 Y83.727 E13.12399
G1 X113.988 Y84.290 E13.18188
G1 X114.802 Y85.054 E13.25646
G1 X115.404 Y85.675 E13.31426
G1 X116.142 Y86.513 E13.38887
G1 X116.684 Y87.189 E13.44671
G1 X117.455 Y88.261 E13.53498
G1 X118.053 Y89.204 E13.60957
G1 X118.482 Y89.956 E13.66738
G1 X118.989 Y90.951 E13.74199
G1 X119.345 Y91.739 E13.79977
G1 X119.757 Y92.778 E13.87444
G1 X120.171 Y94.032 E13.96265
G1 X120.400 Y94.869 E14.02060
G1 X120.643 Y95.957 E14.09511
G1 X120.792 Y96.811 E14.15297
G1 X120.932 Y97.919 E14.22764
G1 X121.000 Y98.783 E14.28548
G1 X121.035 Y99.897 E14.35996
G1 X121.021 Y100.762 E14.41779
G1 X120.951 Y101.878 E14.49248
G1 X120.856 Y102.738 E14.55029
G1 X120.682 Y103.840 E14.62483
G1 X120.506 Y104.688 E14.68267
G1 X120.228 Y105.770 E14.75728
G1 X119.826 Y107.028 E14.84552
G1 X119.519 Y107.840 E14.90350
G1 X119.077 Y108.863 E14.97795
G1 X118.695 Y109.642 E15.03589
G1 X118.053 Y110.796 E15.12412
G1 X117.455 Y111.739 E15.19871
G1 X116.957 Y112.447 E15.25656
G1 X116.273 Y113.329 E15.33112
G1 X115.710 Y113.988 E15.38901
G1 X114.946 Y114.802 E15.46359
G1 X114.325 Y115.404 E15.52139
G1 X113.487 Y116.142 E15.59600
G1 X112.811 Y116.684 E15.65384
G1 X111.739 Y117.455 E15.74211
G1 X110.796 Y118.053 E15.81670
G1 X110.044 Y118.482 E15.87451
G1 X109.049 Y118.989 E15.94913
G1 X108.261 Y119.345 E16.00691
G1 X107.222 Y119.757 E16.08157
G1 X105.968 Y120.171 E16.16978
G1 X105.131 Y120.400 E16.22773
G1 X104.043 Y120.643 E16.30224
G1 X103.189 Y120.792 E16.36011
G1 X102.081 Y120.932 E16.43478
G1 X101.218 Y121.000 E16.49260
G1 X100.103 Y121.035 E16.56708
G1 X99.238 Y121.021 E16.62493
G1 X98.122 Y120.951 E16.69961
G1 X97.262 Y120.856 E16.75743
G1 X96.160 Y120.682 E16.83197
G1 X95.312 Y120.506 E16.88981
G1 X94.230 Y120.228 E16.96441
G1 X92.972 Y119.826 E17.05265
G1 X92.160 Y119.519 E17.11063
G1 X91.137 Y119.077 E17.18508
G1 X90.358 Y118.695 E17.24303
G1 X89.204 Y118.053 E17.33125
G1 X88.261 Y117.455 E17.40584
G1 X87.553 Y116.957 E17.46369
G1 X86.671 Y116.273 E17.53826
G1 X86.012 Y115.710 E17.59615
G1 X85.198 Y114.946 E17.67072
G1 X84.596 Y114.325 E17.72852
G1 X83.858 Y113.487 E17.80314
G1 X83.316 Y112.811 E17.86097
G1 X82.545 Y111.739 E17.94925
G1 X81.947 Y110.796 E18.02384
G1 X81.518 Y110.044 E18.08165
G1 X81.011 Y109.049 E18.15626
G1 X80.655 Y108.261 E18.21404
G1 X80.243 Y107.222 E18.28870
G1 X79.829 Y105.968 E18.37692
G1 X79.600 Y105.131 E18.43486
G1 X79.357 Y104.043 E18.50937
G1 X79.208 Y103.189 E18.56724
G1 X79.068 Y102.081 E18.64191
G1 X79.000 Y101.218 E18.69974
G1 X78.965 Y100.103 E18.77422
G1 X78.979 Y99.238 E18.83206
G1 X79.049 Y98.122 E18.90675
G1 X79.144 Y97.262 E18.96456
G1 X79.318 Y96.159 E19.03911
G1 X79.494 Y95.312 E19.09694
G1 X79.772 Y94.230 E19.17155
G1 X80.174 Y92.972 E19.25979
G1 X80.481 Y92.160 E19.31776
G1 X80.923 Y91.137 E19.39221
G1 X81.305 Y90.358 E19.45016
G1 X81.842 Y89.382 E19.52462
G1 X82.295 Y88.642 E19.58255
G1 X82.923 Y87.718 E19.65718
G1 X83.442 Y87.027 E19.71497
G1 X84.153 Y86.167 E19.78953
G1 X85.012 Y85.242 E19.87385
G1 E17.87385 F2400.00000
G92 E0
G1 X107.625 Y105.403 F9600.000
G1 E2.00000 F2400.00000
G1 F1800
G1 X106.807 Y106.392 E2.08575
G1 X105.952 Y107.194 E2.16408
G1 X105.003 Y107.884 E2.24242
G1 X103.974 Y108.449 E2.32084
G1 X102.858 Y108.887 E2.40099
G1 X101.750 Y109.172 E2.47741
G1 X100.585 Y109.319 E2.55583
G1 X99.385 Y109.315 E2.63598
G1 X98.250 Y109.172 E2.71240
G1 X97.115 Y108.880 E2.79073
G1 X96.024 Y108.449 E2.86907
G1 X94.997 Y107.884 E2.94741
G1 X94.048 Y107.194 E3.02574
G1 X93.193 Y106.392 E3.10408
G1 X92.375 Y105.403 E3.18982
G1 X92.325 Y105.880 E3.22188
G1 X92.203 Y106.263 E3.24872
G1 X92.025 Y106.578 E3.27291
G1 X91.796 Y106.850 E3.29667
G1 X91.519 Y107.074 E3.32043
G1 X91.200 Y107.245 E3.34463
G1 X90.815 Y107.359 E3.37146
G1 X90.454 Y107.389 E3.39566
G1 X90.099 Y107.352 E3.41949
G1 X89.747 Y107.245 E3.44408
G1 X89.400 Y107.055 E3.47050
G1 X89.119 Y106.818 E3.49509
G1 X88.871 Y106.501 E3.52193
G1 X88.710 Y106.177 E3.54612
G1 X88.614 Y105.835 E3.56988
G1 X88.585 Y105.480 E3.59363
G1 X88.622 Y105.120 E3.61783
G1 X88.744 Y104.737 E3.64467
G1 X88.922 Y104.422 E3.66887
G1 X89.152 Y104.150 E3.69263
G1 X89.428 Y103.926 E3.71638
G1 X89.742 Y103.758 E3.74014
G1 X90.086 Y103.650 E3.76428
G1 X90.480 Y103.610 E3.79071
G1 X90.846 Y103.648 E3.81529
G1 X91.512 Y103.849 E3.86176
G1 X91.318 Y103.437 E3.89214
G1 X90.956 Y102.322 E3.97047
G1 X90.736 Y101.170 E4.04881
G1 X90.664 Y100.015 E4.12611
G1 X90.736 Y98.830 E4.20542
G1 X90.956 Y97.678 E4.28381
G1 X91.319 Y96.561 E4.36223
G1 X91.833 Y95.478 E4.44237
G1 X92.446 Y94.512 E4.51880
G1 X93.193 Y93.609 E4.59707
G1 X94.033 Y92.816 E4.67423
G1 X94.997 Y92.116 E4.75381
G1 X96.026 Y91.551 E4.83223
G1 X97.142 Y91.113 E4.91238
G1 X98.250 Y90.828 E4.98880
G1 X99.125 Y90.718 E5.04773
G1 X98.664 Y90.336 E5.08772
G1 X98.437 Y90.062 E5.11149
G1 X98.266 Y89.750 E5.13524
G1 X98.154 Y89.406 E5.15944
G1 X98.110 Y89.007 E5.18628
G1 X98.145 Y88.639 E5.21092
G1 X98.263 Y88.256 E5.23775
G1 X98.437 Y87.938 E5.26195
G1 X98.664 Y87.664 E5.28572
G1 X98.938 Y87.437 E5.30947
G1 X99.250 Y87.266 E5.33322
G1 X99.593 Y87.154 E5.35736
G1 X99.986 Y87.110 E5.38379
G1 X100.351 Y87.144 E5.40822
G1 X100.699 Y87.243 E5.43243
G1 X101.058 Y87.434 E5.45957
G1 X101.336 Y87.664 E5.48369
G1 X101.563 Y87.938 E5.50746
G1 X101.737 Y88.256 E5.53166
G1 X101.855 Y88.639 E5.55849
G1 X101.889 Y89.000 E5.58269
G1 X101.855 Y89.361 E5.60689
G1 X101.737 Y89.745 E5.63372
G1 X101.563 Y90.062 E5.65792
G1 X101.336 Y90.336 E5.68168
G1 X100.875 Y90.718 E5.72168
G1 X101.750 Y90.828 E5.78061
G1 X102.885 Y91.120 E5.85894
G1 X103.976 Y91.551 E5.93727
G1 X105.003 Y92.116 E6.01561
G1 X105.952 Y92.806 E6.09395
G1 X106.807 Y93.608 E6.17228
G1 X107.554 Y94.512 E6.25061
G1 X108.182 Y95.502 E6.32895
G1 X108.682 Y96.563 E6.40729
G1 X109.044 Y97.678 E6.48562
G1 X109.264 Y98.830 E6.56395
G1 X109.335 Y99.960 E6.63962
G1 X109.264 Y101.168 E6.72049
G1 X109.044 Y102.322 E6.79894
G1 X108.681 Y103.439 E6.87736
G1 X108.477 Y103.868 E6.90915
G1 X109.100 Y103.659 E6.95307
G1 X109.493 Y103.610 E6.97950
G1 X109.860 Y103.640 E7.00409
G1 X110.203 Y103.736 E7.02792
G1 X110.528 Y103.897 E7.05212
G1 X110.844 Y104.145 E7.07895
G1 X111.078 Y104.422 E7.10315
G1 X111.256 Y104.737 E7.12735
G1 X111.378 Y105.120 E7.15419
G1 X111.415 Y105.480 E7.17839
G1 X111.386 Y105.836 E7.20222
G1 X111.286 Y106.190 E7.22681
G1 X111.104 Y106.541 E7.25322
G1 X110.872 Y106.827 E7.27780
G1 X110.561 Y107.081 E7.30465
G1 X110.240 Y107.249 E7.32885
G1 X109.900 Y107.352 E7.35260
G1 X109.546 Y107.389 E7.37636
G1 X109.185 Y107.359 E7.40056
G1 X108.800 Y107.245 E7.42739
G1 X108.481 Y107.074 E7.45159
G1 X108.204 Y106.850 E7.47535
G1 X107.975 Y106.578 E7.49911
G1 X107.797 Y106.263 E7.52330
G1 X107.675 Y105.880 E7.55014
G1 X107.631 Y105.462 E7.57819
G1 X107.120 Y105.173 F9600.000
G1 F1800
G1 X106.415 Y106.024 E7.65202
G1 X105.610 Y106.781 E7.72585
G1 X104.716 Y107.431 E7.79968
G1 X103.747 Y107.963 E7.87355
G1 X102.693 Y108.377 E7.94919
G1 X101.649 Y108.645 E8.02117
G1 X100.552 Y108.783 E8.09503
G1 X99.420 Y108.780 E8.17067
G1 X98.351 Y108.645 E8.24265
G1 X97.280 Y108.370 E8.31648
G1 X96.253 Y107.963 E8.39031
G1 X95.284 Y107.431 E8.46415
G1 X94.390 Y106.781 E8.53798
G1 X93.585 Y106.024 E8.61181
G1 X92.880 Y105.173 E8.68564
G1 X92.288 Y104.240 E8.75948
G1 X91.817 Y103.240 E8.83331
G1 X91.476 Y102.189 E8.90714
G1 X91.269 Y101.103 E8.98097
G1 X91.200 Y100.015 E9.05380
G1 X91.269 Y98.897 E9.12862
G1 X91.476 Y97.811 E9.20247
G1 X91.818 Y96.760 E9.27633
G1 X92.303 Y95.737 E9.35197
G1 X92.880 Y94.827 E9.42395
G1 X93.584 Y93.976 E9.49776
G1 X94.376 Y93.230 E9.57042
G1 X95.284 Y92.569 E9.64546
G1 X96.253 Y92.037 E9.71932
G1 X97.307 Y91.623 E9.79496
G1 X98.351 Y91.355 E9.86694
G1 X99.448 Y91.217 E9.94080
G1 X100.580 Y91.220 E10.01645
G1 X101.649 Y91.355 E10.08842
G1 X102.720 Y91.630 E10.16226
G1 X103.747 Y92.037 E10.23609
G1 X104.716 Y92.569 E10.30992
G1 X105.610 Y93.219 E10.38375
G1 X106.415 Y93.976 E10.45758
G1 X107.120 Y94.827 E10.53142
G1 X107.712 Y95.760 E10.60525
G1 X108.183 Y96.760 E10.67908
G1 X108.524 Y97.811 E10.75292
G1 X108.731 Y98.897 E10.82675
G1 X108.798 Y99.961 E10.89799
G1 X108.731 Y101.102 E10.97435
G1 X108.524 Y102.189 E11.04823
G1 X108.182 Y103.240 E11.12209
G1 X107.697 Y104.263 E11.19773
G1 X107.152 Y105.122 E11.26570
G1 X107.283 Y105.538 F9600.000
G1 E9.26570 F2400.00000
G92 E0
G1 X100.498 Y90.258 F9600.000
G1 E2.00000 F2400.00000
G1 F1800
G1 X100.252 Y90.327 E2.01703
G1 X100.000 Y90.351 E2.03397
G1 X99.747 Y90.327 E2.05096
G1 X99.500 Y90.256 E2.06811
G1 X99.242 Y90.119 E2.08761
G1 X99.044 Y89.956 E2.10476
G1 X98.882 Y89.760 E2.12175
G1 X98.760 Y89.537 E2.13874
G1 X98.680 Y89.293 E2.15589
G1 X98.648 Y89.002 E2.17540
G1 X98.673 Y88.744 E2.19270
G1 X98.759 Y88.465 E2.21221
G1 X98.882 Y88.240 E2.22936
G1 X99.044 Y88.044 E2.24635
G1 X99.240 Y87.882 E2.26334
G1 X99.463 Y87.760 E2.28033
G1 X99.707 Y87.681 E2.29746
G1 X99.992 Y87.649 E2.31661
G1 X100.252 Y87.672 E2.33405
G1 X100.498 Y87.742 E2.35111
G1 X100.758 Y87.881 E2.37083
G1 X100.956 Y88.044 E2.38794
G1 X101.118 Y88.240 E2.40494
G1 X101.241 Y88.465 E2.42209
G1 X101.327 Y88.744 E2.44160
G1 X101.351 Y89.000 E2.45874
G1 X101.327 Y89.256 E2.47590
G1 X101.241 Y89.535 E2.49539
G1 X101.118 Y89.760 E2.51254
G1 X100.956 Y89.956 E2.52954
G1 X100.758 Y90.119 E2.54666
G1 X100.551 Y90.230 E2.56237
G1 X100.461 Y90.510 F9600.000
G1 E0.56237 F2400.00000
G92 E0
G1 X91.243 Y104.389 F9600.000
G1 E2.00000 F2400.00000
G1 F1800
G1 X91.439 Y104.555 E2.01715
G1 X91.599 Y104.752 E2.03414
G1 X91.720 Y104.978 E2.05127
G1 X91.802 Y105.253 E2.07042
G1 X91.825 Y105.514 E2.08792
G1 X91.798 Y105.769 E2.10510
G1 X91.709 Y106.048 E2.12460
G1 X91.583 Y106.271 E2.14175
G1 X91.419 Y106.465 E2.15874
G1 X91.222 Y106.626 E2.17573
G1 X90.995 Y106.747 E2.19288
G1 X90.715 Y106.830 E2.21238
G1 X90.460 Y106.851 E2.22953
G1 X90.206 Y106.825 E2.24655
G1 X89.956 Y106.748 E2.26405
G1 X89.704 Y106.611 E2.28319
G1 X89.506 Y106.444 E2.30049
G1 X89.326 Y106.214 E2.31999
G1 X89.212 Y105.984 E2.33714
G1 X89.144 Y105.739 E2.35413
G1 X89.122 Y105.486 E2.37112
G1 X89.149 Y105.231 E2.38827
G1 X89.238 Y104.952 E2.40777
G1 X89.364 Y104.729 E2.42492
G1 X89.528 Y104.534 E2.44192
G1 X89.726 Y104.374 E2.45891
G1 X89.950 Y104.254 E2.47590
G1 X90.195 Y104.178 E2.49303
G1 X90.480 Y104.149 E2.51217
G1 X90.740 Y104.175 E2.52967
G1 X90.987 Y104.250 E2.54685
G1 X91.190 Y104.360 E2.56234
G1 X91.475 Y104.278 F9600.000
G1 E0.56234 F2400.00000
G92 E0
G1 X108.175 Y105.512 F9600.000
G1 E2.00000 F2400.00000
G1 F1800
G1 X108.204 Y105.221 E2.01950
G1 X108.281 Y104.976 E2.03665
G1 X108.401 Y104.752 E2.05364
